X:1
T:Glory to God, PM
T:Glory to God, PM
T:From Wagner’s Bridal Chorus, Logengrin, 1850
T:Public Domain Courtesy of the Cyber Hymnal™
C:From Wagner’s Bridal Chorus, Logengrin, 1850
Z:Public Domain
Z:Courtesy of the Cyber Hymnal™
%%score ( 1 2 ) ( 3 4 )
L:1/8
Q:1/4=83
M:2/4
K:Ab
V:1 treble 
V:2 treble 
V:3 bass 
V:4 bass 
V:1
 [CE]2 [EA]>[EA] | [EA]3 z | E2 [DB]>[DG] | [CA]3 z | [CE]2 [EA]>[Fd] | [Fd]2 [Ec]>[DB] | %6
 [EA]2 [=DG]>[DA] | [EB]3 z | [CE]2 [EA]>[EA] | [EA]3 z | E2 [DB]>[DG] | [CA]3 z | %12
 [CE]2 [EA]>[Ac] | [Ge]2 [Ac]>[FA] | F2 [DB]>[Ec] | [CA]3 z | [Fd]2 [Ec]>[DB] | [DF]2 [DF][DF] | %18
 [DG]2 [CA]>[EB] | [EB]3 z | [Fd]2 [Ec]>[DB] | [DF]2 [DF][DF] | [DG]2 [CA]>[EB] | B4 | %24
 [CE]2 [EA]>[EA] | [EA]3 z | E2 [DB]>[DG] | [CA]3 z | [CE]2 [EA]>[Ac] | [Ge]2 [Ac]>[FA] | [Af]4 | %31
 [Ge]3 [Ge] | [EA]4 |] %33
V:2
 x4 | x4 | E2 x2 | x4 | x4 | x4 | x4 | x4 | x4 | x4 | E2 x2 | x4 | x4 | x4 | F2 x2 | x4 | x4 | x4 | %18
 x4 | x4 | x4 | x4 | x4 | (E2 D2) | x4 | x4 | E2 x2 | x4 | x4 | x4 | x4 | x4 | x4 |] %33
V:3
 A,2 [A,C]>[A,C] | [A,C]3 z | [A,C]2 [E,G,]>[E,B,] | [A,,A,]3 z | A,2 [A,C]>[A,D] | [A,D]2 A,>A, | %6
 [A,C]2 [F,A,]>[F,A,] | [E,G,]3 z | A,2 [A,C]>[A,C] | [A,C]3 z | [A,C]2 [E,G,]>[E,B,] | %11
 [A,,A,]3 z | A,2 [A,C]>[A,E] | [C,C]2 [F,C]>[F,C] | [D,B,]2 [E,G,]>[E,G,] | A,3 z | A,2 A,>A, | %17
 [D,B,]2 [D,B,][D,B,] | [B,,E,]2 [A,,E,]>[E,G,] | [E,G,]3 z | A,2 A,>A, | [D,B,]2 [D,B,][D,B,] | %22
 [B,,E,]2 [A,,E,]>[E,G,] | [E,G,]4 | A,2 [A,C]>[A,C] | [A,C]3 z | [A,C]2 [E,G,]>[E,B,] | %27
 [A,,A,]3 z | A,2 [A,C]>[A,E] | [C,C]2 [F,C]>[F,C] | [D,B,]4 | [E,D]3 [E,D] | [A,C]4 |] %33
V:4
 A,2 x2 | x4 | x4 | x4 | A,2 x2 | x2 A,>A, | x4 | x4 | A,2 x2 | x4 | x4 | x4 | A,2 x2 | x4 | x4 | %15
 A,3 x | A,2 A,>A, | x4 | x4 | x4 | A,2 A,>A, | x4 | x4 | x4 | A,2 x2 | x4 | x4 | x4 | A,2 x2 | %29
 x4 | x4 | x4 | x4 |] %33

